X: 4639
T: Box Man, The
R: jig
M: 6/8
K: Dmajor
A2G|:FGA f2 e|dFB AFD|A,DF Ad=c|B3 G2F|
EAc e2f|eAc efg|baa age|gff f2 d|
DFA f2 e|dFB AFD|A,DF Ad=c|B3 G2F|
EAc eAc|eAc eba|gec Afe|1 d3 dAG:|2 d3 dfg||
a2 b a2 b|afd a2b|afd afa|gee ecd|
e2 f ecA|g3 Bcd|e2f ecA|GFE Dfg|
a2 b a2 b|afd a2b|afd afa|gee ecd|
e2 f ecA|g3 Bcd|gba gec|dAF D3||

